!!!COM: Beethoven
!!!OTL: 24 Variationen uber Venni Amore von V. Righini
!!!Variation: Variation 21 a
**kern	**harm	**kern	**kern	**kern	**kern
*M2/4	*M2/4	*staff3	*staff4	*staff1	*staff2
*D:	*D:	*clefF4	*clefF4	*clefG2	*clefG2
*tb16	*	*k[f#c#]	*k[f#c#]	*k[f#c#]	*k[f#c#]
*	*	*M2/4	*M2/4	*M2/4	*M2/4
*	*	*D:	*D:	*D:	*D:
=-	=-	=-	=-	=-	=-
16T	16V7/vi	16r	16r	16ff#	16f#
=	=	=371	=371	=371	=371
2T	2V7/vi	4r	[2FF# [2F#	4ff#	[2f#
.	.	4AA#	.	4cc# 4ee	.
=	=	=372	=372	=372	=372
4T	4i64/vi	4BB	2FF#_ 2F#_	4b 4dd	4f#]
4T	4V7/vi	4C#	.	4a# 4cc#	4e
=	=	=373	=373	=373	=373
4T	4i64/vi	4D	4FF#_ 4F#]	4b	4d 4f#
4T	4viio7/V/vi	4E#	4FF#]	8bL	4d 4g#
.	.	.	.	8cc#J	.
=	=	=374	=374	=374	=374
2T	2V/vi	2r	2FF# 2F#	[4c# [4f# [4a#	[4c#
.	.	.	.	8.c#L] 8.f#] 8.a#]	8.c#L]
.	.	.	.	16aJk	16AJk 16d
=	=	=375	=375	=375	=375
2T	2I6	2r	(2FF# [2AA 2F#	[2a	4A 4d
.	.	.	.	.	16c#LL
.	.	.	.	.	16d
.	.	.	.	.	16e
.	.	.	.	.	16f#JJ
=	=	=376	=376	=376	=376
2T	2V43	2r	(2EE) 2AA_ 2E	4a]	2g
.	.	.	.	16g#LL	.
.	.	.	.	16a	.
.	.	.	.	16b	.
.	.	.	.	16cc#JJ	.
=	=	=377	=377	=377	=377
2T	2I	2r	4DD) 4AA] 4D	8f# 8dd	2r
.	.	.	.	8r	.
.	.	.	(16DDLL	8A 8d 8f#	.
.	.	.	16EE	.	.
.	.	.	16FF#	8r	.
.	.	.	16GGJJ)	.	.
=	=	=378	=378	=378	=378
2D	2V	2r	8AA'	8A' 8c#' 8e'	2r
.	.	.	8r	8r	.
.	.	.	8AAA'	4r	.
.	.	.	8r	.	.
=	=	=379:|!|:	=379:|!|:	=379:|!|:	=379:|!|:
*-	*-	*-	*-	*-	*-
